icons/bag-outline.svg

<svg xmlns="http://www.w3.org/2000/svg" width="24" height="24" viewBox="0 0 24 24">
  <path d="M14,2 C15.5976809,2 16.9036609,3.24891996 16.9949073,4.82372721 L17,5 L17,6 L19,6 C20.6568542,6 22,7.34314575 22,9 L22,9 L22,19 C22,20.6568542 20.6568542,22 19,22 L19,22 L5,22 C3.34314575,22 2,20.6568542 2,19 L2,19 L2,9 C2,7.34314575 3.34314575,6 5,6 L5,6 L7,6 L7,5 C7,3.40231912 8.24891996,2.09633912 9.82372721,2.00509269 L10,2 L14,2 Z M19,8 L5,8 C4.44771525,8 4,8.44771525 4,9 L4,9 L4,19 C4,19.5522847 4.44771525,20 5,20 L5,20 L19,20 C19.5522847,20 20,19.5522847 20,19 L20,19 L20,9 C20,8.44771525 19.5522847,8 19,8 L19,8 Z M14,4 L10,4 C9.48716416,4 9.06449284,4.38604019 9.00672773,4.88337887 L9,5 L9,6 L15,6 L15,5 C15,4.48716416 14.6139598,4.06449284 14.1166211,4.00672773 L14,4 Z"/>
</svg>

<svg xmlns="http://www.w3.org/2000/svg" viewBox="0 0 24 24">
  <path d="M14 2a3 3 0 0 1 3 2.82V6h2a3 3 0 0 1 3 3v10a3 3 0 0 1-3 3H5a3 3 0 0 1-3-3V9a3 3 0 0 1 3-3h2V5a3 3 0 0 1 2.82-3H14zm5 6H5a1 1 0 0 0-1 1v10a1 1 0 0 0 1 1h14a1 1 0 0 0 1-1V9a1 1 0 0 0-1-1zm-5-4h-4a1 1 0 0 0-1 .88V6h6V5a1 1 0 0 0-.88-1H14z"/>
</svg>
